resources/svg/rollupjs-o.svg

<svg xmlns="http://www.w3.org/2000/svg" viewBox="0 0 15 15" fill="none"><path d="M1.5 0.5V0C1.22386 0 1 0.223858 1 0.5L1.5 0.5ZM13.5 14.5V15C13.67 15 13.8284 14.9136 13.9204 14.7707C14.0124 14.6278 14.0255 14.4479 13.9552 14.2931L13.5 14.5ZM11.0119 9.02628L10.7881 8.57919C10.5477 8.69955 10.4455 8.98844 10.5568 9.23318L11.0119 9.02628ZM7.35983 2.78035L7.80704 3.00396L7.35983 2.78035ZM4.76542 14.0576L4.33667 13.8004L4.76542 14.0576ZM8.77221 3.31664L9.24656 3.15853V3.15853L8.77221 3.31664ZM9.22941 4.68824L8.75507 4.84636L9.22941 4.68824ZM11.4644 4.39308L10.99 4.55119L11.4644 4.39308ZM8.9775 1.78376L9.39352 2.06111L8.9775 1.78376ZM10.339 5.66781L10.4371 5.17752H10.4371L10.339 5.66781ZM1 0.5V12.5H2V0.5H1ZM3.5 15H13.5V14H3.5V15ZM13.9552 14.2931L11.4671 8.81938L10.5568 9.23318L13.0448 14.7069L13.9552 14.2931ZM1.5 1H9V0H1.5V1ZM13 5C13 6.56559 12.1006 7.92203 10.7881 8.57919L11.2358 9.47337C12.8737 8.6533 14 6.95863 14 5H13ZM9 1C11.2091 1 13 2.79086 13 5H14C14 2.23858 11.7614 0 9 0V1ZM1 12.5C1 13.8807 2.11929 15 3.5 15V14C2.67157 14 2 13.3284 2 12.5H1ZM2.44721 13.7236L7.80704 3.00396L6.91261 2.55674L1.55279 13.2764L2.44721 13.7236ZM7.80704 3.00396C8.30758 2.00288 9.34022 1.40285 10.4309 1.43625L10.4615 0.436719C8.98626 0.391537 7.58974 1.20248 6.91261 2.55674L7.80704 3.00396ZM4.92875 14.7572L5.19416 14.3149L4.33667 13.8004L4.07125 14.2428L4.92875 14.7572ZM5.19416 14.3149C6.99828 11.308 9.0672 8.46821 11.3763 5.82925L10.6237 5.17075C8.27543 7.85449 6.1714 10.7425 4.33667 13.8004L5.19416 14.3149ZM8.29787 3.47476L8.75507 4.84636L9.70376 4.53013L9.24656 3.15853L8.29787 3.47476ZM11.9387 4.23496L11.4743 2.84189L10.5257 3.15811L10.99 4.55119L11.9387 4.23496ZM10.442 0.5C9.6863 0.5 8.98064 0.877659 8.56147 1.50641L9.39352 2.06111C9.62722 1.71056 10.0207 1.5 10.442 1.5V0.5ZM10.241 6.1581C11.3575 6.38141 12.2988 5.31519 11.9387 4.23496L10.99 4.55119C11.1073 4.903 10.8007 5.25025 10.4371 5.17752L10.241 6.1581ZM8.75507 4.84636C8.97914 5.51855 9.5462 6.01914 10.241 6.1581L10.4371 5.17752C10.0942 5.10894 9.81434 4.86188 9.70376 4.53013L8.75507 4.84636ZM9.24656 3.15853C9.12359 2.78964 9.17783 2.38464 9.39352 2.06111L8.56147 1.50641C8.1746 2.08671 8.07733 2.81311 8.29787 3.47476L9.24656 3.15853ZM10.4309 1.43625C10.3764 1.43458 10.2779 1.41956 10.1801 1.34505C10.0759 1.26569 9.98276 1.1204 9.99525 0.935334C10.0212 0.551375 10.3765 0.5 10.442 0.5V1.5C10.5741 1.5 10.965 1.41789 10.993 1.00268C11.0065 0.801994 10.9061 0.64095 10.786 0.549497C10.6723 0.462885 10.5494 0.43941 10.4615 0.436719L10.4309 1.43625Z" fill="black"/></svg>

<svg xmlns="http://www.w3.org/2000/svg" viewBox="0 0 15 15" fill="none"><path d="M1.5.5V0a.5.5 0 00-.5.5h.5zm12 14v.5a.5.5 0 00.455-.707l-.455.207zm-2.488-5.474l-.224-.447a.5.5 0 00-.231.654l.455-.207zM7.36 2.78l.447.224-.447-.224zM4.765 14.058l-.428-.258.428.258zM8.772 3.317l.475-.158-.475.158zm.457 1.371l-.474.158.474-.158zm2.235-.295l-.474.158.474-.158zm-2.487-2.61l.417.278-.417-.277zm1.362 3.885l.098-.49-.098.49zM1 .5v12h1V.5H1zM3.5 15h10v-1h-10v1zm10.455-.707L11.467 8.82l-.91.414 2.488 5.474.91-.414zM1.5 1H9V0H1.5v1zM13 5a4 4 0 01-2.212 3.58l.448.893A5 5 0 0014 5h-1zM9 1a4 4 0 014 4h1a5 5 0 00-5-5v1zM1 12.5A2.5 2.5 0 003.5 15v-1A1.5 1.5 0 012 12.5H1zm1.447 1.224l5.36-10.72-.894-.447-5.36 10.72.894.447zm5.36-10.72a2.838 2.838 0 012.624-1.568l.03-1a3.838 3.838 0 00-3.548 2.12l.894.448zM4.929 14.757l.265-.442-.857-.515-.266.443.858.514zm.265-.442a58.922 58.922 0 016.182-8.486l-.752-.658a59.924 59.924 0 00-6.287 8.63l.857.514zm3.104-10.84l.457 1.371.949-.316-.457-1.371-.95.316zm3.64.76l-.464-1.393-.948.316.464 1.393.949-.316zM10.443.5a2.26 2.26 0 00-1.88 1.006l.832.555a1.26 1.26 0 011.048-.561v-1zm-.201 5.658a1.483 1.483 0 001.698-1.923l-.949.316c.117.352-.19.7-.553.627l-.196.98zM8.755 4.846a1.974 1.974 0 001.486 1.312l.196-.98a.974.974 0 01-.733-.648l-.949.316zm.492-1.687a1.26 1.26 0 01.147-1.098l-.833-.555a2.26 2.26 0 00-.263 1.969l.949-.316zm1.184-1.723a.438.438 0 01-.25-.09.475.475 0 01-.186-.41c.026-.385.382-.436.447-.436v1c.132 0 .523-.082.551-.497a.525.525 0 00-.207-.454.562.562 0 00-.325-.112l-.03 1z" fill="currentColor"/></svg>
